X: 02106
T: The PURPLE APPENDIX
C: Bob McQuillen 1 Aug'75
B: Bob's Note Book 1&2 #106
%R: reel
Z: 2019 John Chambers <jc:trillian.mit.edu>
M: C
L: 1/8
K: G
DG \
| G2GB BGBd | dggd gdBd | G2GB BGBd | dggd BGDG |
| G2GB BGBd | dggd gdBd | G2GB BGBd | dBGD G2 :|
|: FA \
| D2DF FDFA | cAFA cAFA | D2DF FDFA | cAFA cAFA |
| D2DF FDFA | cAFA cAFA | D2DF FDFA | cAFA D2 :|
%%begintext align
%% With love to Beeka,
%% who just lost 2 pounds.
%%endtext

%%sep 1 1 500

%%sep 1 1 500

